X: 203
T:Hope Told a Flattering Tale. JaW.202
M:6/8
L:1/8
Q:80
S:James Winder Ms, Lancashire, 1835-41
R:Air
O:England
A:Wyresdale,Lancashire
N:Doesn't Quite add up somewhere, but here it is as writ..CGP
H:1/8
Z:vmp.Chris Partington, Aug 2004
K:C
g/f/|e2e d2d|c3-c2e/f/|g2e a2f|e/d/z2 z2d|!
e2e| (g3a2)f/d/|c2c e2d|c3-c2e/d/|^c2A a2g|!
(g3f2)(f/4e/4d/4c/4)|B2G g2f|e3 e2g|^f2f c'2f|!
g3-g2g|(gf).f (fe).e|edzz2c|e2e fef|!
g3 "Hold"a2f/e/f/d/|c2c g2B|c3-c2:||
